images/offers-bottom.svg

<svg width="1920" height="187" viewBox="0 0 1920 187" fill="none" xmlns="http://www.w3.org/2000/svg">
<g clip-path="url(#clip0_664_6)">
<g filter="url(#filter0_dd_664_6)">
<path fill-rule="evenodd" clip-rule="evenodd" d="M1920 42.9593L1868.88 54.9627C1817.75 66.9661 1715.5 90.9729 1613.25 96.9746C1511 102.976 1408.75 90.9729 1306.5 66.9661C1204.25 42.9593 1102 6.94912 999.75 0.947419C897.5 -5.05428 795.25 18.9525 744.125 30.9559L693 42.9593V187H744.125C795.25 187 897.5 187 999.75 187C1102 187 1204.25 187 1306.5 187C1408.75 187 1511 187 1613.25 187C1715.5 187 1817.75 187 1868.88 187H1920V42.9593Z" fill="url(#paint0_linear_664_6)"/>
<path fill-rule="evenodd" clip-rule="evenodd" d="M0 42.9472L50 54.9472C100 66.9472 200 90.9472 300 96.9472C400 102.947 500 90.9472 600 66.9472C700 42.9472 800 6.94715 900 0.947151C1000 -5.05285 1100 18.9472 1150 30.9472L1200 42.9472V186.947H1150C1100 186.947 1000 186.947 900 186.947C800 186.947 700 186.947 600 186.947C500 186.947 400 186.947 300 186.947C200 186.947 100 186.947 50 186.947H0V42.9472Z" fill="url(#paint1_linear_664_6)"/>
</g>
</g>
<defs>
<filter id="filter0_dd_664_6" x="-100" y="-120" width="2120" height="387" filterUnits="userSpaceOnUse" color-interpolation-filters="sRGB">
<feFlood flood-opacity="0" result="BackgroundImageFix"/>
<feColorMatrix in="SourceAlpha" type="matrix" values="0 0 0 0 0 0 0 0 0 0 0 0 0 0 0 0 0 0 127 0" result="hardAlpha"/>
<feOffset dy="-20"/>
<feGaussianBlur stdDeviation="50"/>
<feComposite in2="hardAlpha" operator="out"/>
<feColorMatrix type="matrix" values="0 0 0 0 0 0 0 0 0 0 0 0 0 0 0 0 0 0 0.25 0"/>
<feBlend mode="normal" in2="BackgroundImageFix" result="effect1_dropShadow_664_6"/>
<feColorMatrix in="SourceAlpha" type="matrix" values="0 0 0 0 0 0 0 0 0 0 0 0 0 0 0 0 0 0 127 0" result="hardAlpha"/>
<feOffset dy="10"/>
<feGaussianBlur stdDeviation="19.7"/>
<feComposite in2="hardAlpha" operator="out"/>
<feColorMatrix type="matrix" values="0 0 0 0 0 0 0 0 0 0 0 0 0 0 0 0 0 0 0.25 0"/>
<feBlend mode="normal" in2="effect1_dropShadow_664_6" result="effect2_dropShadow_664_6"/>
<feBlend mode="normal" in="SourceGraphic" in2="effect2_dropShadow_664_6" result="shape"/>
</filter>
<linearGradient id="paint0_linear_664_6" x1="1565.17" y1="296" x2="354.827" y2="3.9343e-05" gradientUnits="userSpaceOnUse">
<stop stop-color="#26135F"/>
<stop offset="1" stop-color="#0867A8"/>
</linearGradient>
<linearGradient id="paint1_linear_664_6" x1="1565.17" y1="296" x2="354.827" y2="3.9343e-05" gradientUnits="userSpaceOnUse">
<stop stop-color="#26135F"/>
<stop offset="1" stop-color="#0867A8"/>
</linearGradient>
<clipPath id="clip0_664_6">
<rect width="1920" height="187" fill="white"/>
</clipPath>
</defs>
</svg>

<svg width="1920" height="187" fill="none" xmlns="http://www.w3.org/2000/svg"><g filter="url(#b)" fill-rule="evenodd" clip-rule="evenodd" clip-path="url(#a)"><path d="m1920 42.96-51.12 12.003c-51.13 12.003-153.38 36.01-255.63 42.012-102.25 6.001-204.5-6.002-306.75-30.009S1102 6.95 999.75.947C897.5-5.054 795.25 18.953 744.125 30.956L693 42.959V187h1227V42.96z" fill="url(#c)"/><path d="m0 42.947 50 12c50 12 150 36 250 42s200-6 300-30 200-60 300-66 200 18 250 30l50 12v144H0v-144z" fill="url(#d)"/></g><defs><linearGradient id="c" x1="1565.17" y1="296" x2="354.827" y2="0" gradientUnits="userSpaceOnUse"><stop stop-color="#26135F"/><stop offset="1" stop-color="#0867A8"/></linearGradient><linearGradient id="d" x1="1565.17" y1="296" x2="354.827" y2="0" gradientUnits="userSpaceOnUse"><stop stop-color="#26135F"/><stop offset="1" stop-color="#0867A8"/></linearGradient><clipPath id="a"><path fill="#fff" d="M0 0h1920v187H0z"/></clipPath><filter id="b" x="-100" y="-120" width="2120" height="387" filterUnits="userSpaceOnUse" color-interpolation-filters="sRGB"><feFlood flood-opacity="0" result="BackgroundImageFix"/><feColorMatrix in="SourceAlpha" values="0 0 0 0 0 0 0 0 0 0 0 0 0 0 0 0 0 0 127 0" result="hardAlpha"/><feOffset dy="-20"/><feGaussianBlur stdDeviation="50"/><feComposite in2="hardAlpha" operator="out"/><feColorMatrix values="0 0 0 0 0 0 0 0 0 0 0 0 0 0 0 0 0 0 0.25 0"/><feBlend in2="BackgroundImageFix" result="effect1_dropShadow_664_6"/><feColorMatrix in="SourceAlpha" values="0 0 0 0 0 0 0 0 0 0 0 0 0 0 0 0 0 0 127 0" result="hardAlpha"/><feOffset dy="10"/><feGaussianBlur stdDeviation="19.7"/><feComposite in2="hardAlpha" operator="out"/><feColorMatrix values="0 0 0 0 0 0 0 0 0 0 0 0 0 0 0 0 0 0 0.25 0"/><feBlend in2="effect1_dropShadow_664_6" result="effect2_dropShadow_664_6"/><feBlend in="SourceGraphic" in2="effect2_dropShadow_664_6" result="shape"/></filter></defs></svg>
